assets/icons/traton/kebab.svg

<svg xmlns="http://www.w3.org/2000/svg" fill="none" viewBox="0 0 32 32"><path fill="#001d21" d="M18 26h-4v-4h4zm0-8h-4v-4h4zm0-8h-4V6h4z"/></svg>

<svg xmlns="http://www.w3.org/2000/svg" width="32" height="32" viewBox="0 0 32 32" fill="none">
<path d="M18 26H14V22H18V26ZM18 18H14V14H18V18ZM18 10H14V6H18V10Z" fill="#001D21" />
</svg>
